src/icons/aws-lambda.svg

<?xml version="1.0" encoding="UTF-8"?>
<svg xmlns="http://www.w3.org/2000/svg" xmlns:xlink="http://www.w3.org/1999/xlink" width="32" height="32" viewBox="0 0 32 32" version="1.1">
<g id="surface1">
<path style=" stroke:none;fill-rule:evenodd;fill:rgb(61.56863%,31.37255%,14.509805%);fill-opacity:1;" d="M 0 16.632812 C 0 8.117188 7.136719 1.261719 16 1.261719 C 24.863281 1.261719 32 8.117188 32 16.632812 C 32 25.144531 24.863281 32 16 32 C 7.136719 32 0 25.144531 0 16.632812 Z M 0 16.632812 "/>
<path style=" stroke:none;fill-rule:evenodd;fill:rgb(61.56863%,31.37255%,14.509805%);fill-opacity:1;" d="M 0 15.367188 L 32 15.367188 L 32 16.632812 L 0 16.632812 Z M 0 15.367188 "/>
<path style=" stroke:none;fill-rule:evenodd;fill:rgb(96.078432%,52.156866%,21.176471%);fill-opacity:1;" d="M 0 15.367188 C 0 6.855469 7.136719 0 16 0 C 24.863281 0 32 6.855469 32 15.367188 C 32 23.882812 24.863281 30.738281 16 30.738281 C 7.136719 30.738281 0 23.882812 0 15.367188 Z M 0 15.367188 "/>
<path style=" stroke:none;fill-rule:evenodd;fill:rgb(100%,100%,100%);fill-opacity:1;" d="M 26.410156 22.917969 L 25.167969 19.792969 L 22.394531 20.8125 L 18.425781 10.828125 L 17.320312 8.066406 L 16.804688 6.761719 L 15.988281 4.722656 L 10.730469 4.722656 L 10.730469 8.066406 L 13.59375 8.066406 L 14.585938 10.5625 L 6.308594 24.710938 L 10.304688 24.710938 L 16.207031 14.621094 L 20.386719 25.132812 L 21.378906 24.769531 L 23.640625 23.9375 Z M 26.410156 22.917969 "/>
</g>
</svg>

<svg role="img" viewBox="0 0 32 32" xmlns="http://www.w3.org/2000/svg"><path d="M0 16.633C0 8.117 7.137 1.262 16 1.262s16 6.855 16 15.37C32 25.146 24.863 32 16 32S0 25.145 0 16.633m0-1.266h32v1.266H0Zm0 0" style="stroke:none;fill-rule:evenodd;fill:rgb(61.56863%,31.37255%,14.509805%);fill-opacity:1"/><path d="M0 15.367C0 6.855 7.137 0 16 0s16 6.855 16 15.367c0 8.516-7.137 15.371-16 15.371S0 23.883 0 15.368m0 0" style="stroke:none;fill-rule:evenodd;fill:rgb(96.078432%,52.156866%,21.176471%);fill-opacity:1"/><path d="m26.41 22.918-1.242-3.125-2.773 1.02-3.97-9.985-1.105-2.762-.515-1.304-.817-2.04H10.73v3.344h2.864l.992 2.496-8.277 14.149h3.996l5.902-10.09 4.18 10.512.992-.363 2.262-.832Zm0 0" style="stroke:none;fill-rule:evenodd;fill:rgb(100%,100%,100%);fill-opacity:1"/></svg>
